static/img/menus/ico-account.svg

<svg width="16" height="16" viewBox="0 0 16 16" fill="none" xmlns="http://www.w3.org/2000/svg">
<g clip-path="url(#clip0_953_83)">
<path d="M2 13.8808C3.0501 13.2899 4.1639 12.8203 5.32 12.4808C5.48055 12.4156 5.61883 12.3054 5.71819 12.1635C5.81754 12.0216 5.87374 11.8539 5.88 11.6808V11.0008M5.88 11.0008C5.74667 10.8408 5.61333 10.6674 5.48 10.4808C5.11299 10.0125 4.82889 9.48492 4.64 8.92078H4.6C4.49039 8.93075 4.3805 8.90496 4.28677 8.84728C4.19304 8.7896 4.1205 8.70312 4.08 8.60078C3.85897 8.37165 3.71856 8.07679 3.68 7.76078C3.65131 7.44811 3.73654 7.13559 3.92 6.88078C3.9568 6.78839 4.01649 6.70687 4.09346 6.64389C4.17043 6.58092 4.26215 6.53855 4.36 6.52078L4.4 6.48078C4.28277 5.27326 4.64158 4.06769 5.4 3.12078C5.73707 2.75962 6.14626 2.47331 6.60104 2.28037C7.05582 2.08743 7.54606 1.99218 8.04 2.00078C8.52132 1.99798 8.99787 2.09621 9.43884 2.28914C9.87981 2.48206 10.2754 2.76538 10.6 3.12078C11.3584 4.06769 11.7172 5.27326 11.6 6.48078L11.64 6.52078C11.7379 6.53855 11.8296 6.58092 11.9065 6.64389C11.9835 6.70687 12.0432 6.78839 12.08 6.88078C12.2635 7.13559 12.3487 7.44811 12.32 7.76078C12.2814 8.07679 12.141 8.37165 11.92 8.60078C11.8795 8.70312 11.807 8.7896 11.7132 8.84728C11.6195 8.90496 11.5096 8.93075 11.4 8.92078H11.36C11.1711 9.48492 10.887 10.0125 10.52 10.4808C10.3867 10.6674 10.2533 10.8408 10.12 11.0008M5.88 11.0008C6.15152 11.2912 6.47979 11.5227 6.84447 11.6809C7.20915 11.8392 7.60246 11.9209 8 11.9209C8.39754 11.9209 8.79085 11.8392 9.15553 11.6809C9.52021 11.5227 9.84848 11.2912 10.12 11.0008M10.12 11.0008V11.6808C10.1263 11.8539 10.1825 12.0216 10.2818 12.1635C10.3812 12.3054 10.5195 12.4156 10.68 12.4808C11.8361 12.8203 12.9499 13.2899 14 13.8808" stroke="currentColor" stroke-linecap="round" stroke-linejoin="round"/>
</g>
<defs>
<clipPath id="clip0_953_83">
<rect width="16" height="16" fill="white"/>
</clipPath>
</defs>
</svg>

<svg xmlns="http://www.w3.org/2000/svg" width="16" height="16" fill="none" viewBox="0 0 16 16"><g clip-path="url(#a)"><path stroke="currentColor" stroke-linecap="round" stroke-linejoin="round" d="M2 13.88c1.05-.59 2.164-1.06 3.32-1.4a.9.9 0 0 0 .56-.8V11m0 0a9 9 0 0 1-.4-.52 5.2 5.2 0 0 1-.84-1.56H4.6a.51.51 0 0 1-.52-.32 1.47 1.47 0 0 1-.4-.84 1.3 1.3 0 0 1 .24-.88.59.59 0 0 1 .44-.36l.04-.04a4.66 4.66 0 0 1 1-3.36A3.53 3.53 0 0 1 8.04 2a3.44 3.44 0 0 1 2.56 1.12 4.66 4.66 0 0 1 1 3.36l.04.04a.59.59 0 0 1 .44.36c.184.256.269.568.24.88-.039.317-.179.612-.4.84a.51.51 0 0 1-.52.32h-.04a5.2 5.2 0 0 1-.84 1.56q-.2.28-.4.52m-4.24 0a2.9 2.9 0 0 0 4.24 0m0 0v.68a.9.9 0 0 0 .56.8c1.156.34 2.27.81 3.32 1.4"/></g><defs><clipPath id="a"><path fill="#fff" d="M0 0h16v16H0z"/></clipPath></defs></svg>
